X:74
T:Follow me Down
R:Reel
D:Tape of concert ('You and Yours'), Newtownards, 1983
N:As played
Z:Bernie Stocks
M:4/4
K:D
BcBA FGAB | {dBA}BABc de{a}fe | dcdA FGAc | Bbba bB~B2 ::
d2ad bdad | (3cBAeg fgec | d2ad bdad | bafe dB~B2 |
bafb afec | dcdA FGAB | {dBA}BABc dfbf | afec dB~B2 ||
<end>
<start>
